X: 2080
T: Çamlıca Yolunda
C: Nuri Halil Poyraz
O: Turkey
F: http://compmusic.upf.edu/node/140
N: nihavent--sarki--aksak--camlica_yolunda--nuri_halil_poyraz
N: makam= nihavent
N: form= sarki
N: usul= aksak = 9/8
M: 9/8
L: 1/16
K: C _B _e  
Q: 1/4=204
%%MIDI tuningsystem comma53
.d4 z6.d2 c2d2 B2 | .d4z6 .d2e2 d2c2  | \
w:  ARANAĞME  |   | 
d2e2 ^f2g2 b2a2 g2f2 a2 | 
w:   | 
g4g4g4d2 e2=e2  | .f4 z6.f2 =e2f2 d2 | \
w:   |   | 
.f4z6 .f2=e2 f2a2  | g4 f2e2 d2c2 B2A2 B2 | 
w:   |   | 
G2 GGG2 G2G2 GGG^F GABc  | d4 d2d2 z4 c2d2 B2 | 
w:   |  Çam lı ca  yo lun da   | 
d4d2 d2z4c2 d2B2  | d4 d2d2 z4 e2^f2 a2 | g18  | \
w:  â şı kı  ko lun da   |  iş le ri  yo lun  |  da    | 
b4 b2b2 z4 a2b2 g2 | 
w:  O  be nim  sa ğım da   | 
a4a2 a2z4^f2 g2e2  | g4 f2e2 d2c2 B2A2 B2 | \
w:  ben  o nun  so lun da   |  Çam lı ca  yo *  lun  | 
G4G2 G2G2 GGG^F G_ABc  | 
w:  da   SAZ  | 
d4 d2d2 z4 c2d2 B2 | d4d2 d2z4c2 d2B2  | \
w:  Çam lı ca  yo lun da   |  â şı kı  ko lun da   | 
d4 d2d2 z4 e2^f2 a2 | 
w:  iş le ri  yo lun  | 
g18  | b4 b2b2 z4 a2b2 g2 | a4a2 a2z4^f2 g2e2  | \
w:  da    |  O  be nim  sa ğım da   |  ben  o nun  so lun da   | 
g4 f2e2 d2c2 B2A2 B2 | 
w:  Çam lı ca  yo *  lun  | 
G4G2 G2G2 GGG^F G_ABc  | .d4 z6.d2 c2d2 B2 | \
w:  da   SAZ  |  ARANAĞME  | 
.d4z6 .d2e2 d2c2  | 
w:   | 
d2e2 ^f2g2 b2a2 g2f2 a2 | g4g4g4d2 e2=e2  | \
w:   |   | 
.f4 z6.f2 =e2f2 d2 | 
w:   | 
.f4z6 .f2=e2 f2a2  | g4 f2e2 d2c2 B2A2 B2 | \
w:   |   | 
G2 GGG2 G2G2 GGG^F GABc  | 
w:   | 
d4 d2d2 z4 c2d2 B2 | d4d2 d2z4c2 d2B2  | \
w:  Çam lı ca  yo lun da   |  â şı kı  ko lun da   | 
d4 d2d2 z4 e2^f2 a2 | 
w:  iş le ri  yo lun  | 
g18  | b4 b2b2 z4 a2b2 g2 | a4a2 a2z4^f2 g2e2  | \
w:  da    |  O  be nim  sa ğım da   |  ben  o nun  so lun da   | 
g4 f2e2 d2c2 B2A2 B2 | 
w:  Çam lı ca  yo *  lun  | 
G4|
w:  da    | 


